client/src/components/user/common/social media/youtube.svg

<svg xmlns="http://www.w3.org/2000/svg" width="26" height="26" viewBox="0 0 26 26">
    <g fill="none" fill-rule="evenodd">
        <circle cx="13" cy="13" r="13" fill="#247F65"/>
        <path fill="#FFF" d="M9.41 16.556l.01-2.394.448-.005.447-.006-.005-.368-.006-.37-1.291-.005-1.29-.005v.748l.436.006.437.005.005 2.374c.002 1.305.009 2.385.014 2.399.007.02.098.024.397.02l.389-.005.01-2.394zm7.448-.169c-.018-.048.007-.6.032-.681.056-.189.176-.28.366-.28.157 0 .257.06.325.197.042.087.046.124.053.445l.007.35h-.386c-.332 0-.387-.005-.397-.03zm.72 2.58c.378-.107.64-.366.738-.731.016-.063.036-.24.042-.395l.011-.28h-.728l-.008.25c-.01.287-.04.385-.144.476-.11.097-.313.104-.445.015-.157-.106-.196-.286-.188-.87l.006-.413.753-.005.753-.006-.01-.615c-.012-.687-.026-.791-.141-1.035-.22-.462-.827-.695-1.331-.51-.38.138-.605.39-.696.778-.031.137-.035.26-.035 1.265 0 1.232.004 1.282.13 1.535.223.448.784.683 1.293.54zm-2.982-.702a.265.265 0 0 0 .1-.143c.031-.09.034-.204.03-1.261-.005-1.101-.007-1.166-.042-1.238-.092-.185-.321-.203-.532-.041l-.069.052v2.513l.069.052c.156.12.326.144.444.066zm.456.709c.114-.033.253-.17.315-.31.12-.266.12-.273.12-1.773 0-1.232-.004-1.384-.034-1.518-.099-.426-.314-.612-.675-.585-.203.016-.362.097-.554.282a1.32 1.32 0 0 1-.165.146c-.008 0-.015-.408-.015-.906v-.906h-.707v5.555h.707v-.187c0-.124.007-.187.022-.187.012 0 .091.066.177.146.275.26.513.331.809.243zm-3.762-.018c.141-.053.307-.168.447-.31a.568.568 0 0 1 .142-.12c.019 0 .025.053.025.217v.216h.707v-4.117h-.707v3.176l-.152.152c-.12.12-.171.157-.246.178-.126.035-.207.01-.259-.08-.039-.066-.04-.097-.045-1.747l-.006-1.68h-.706v1.784c0 1.943.002 1.985.11 2.172.12.205.397.269.69.159zm.3 1.718c-.459-.008-1.002-.021-1.208-.029-1.377-.05-2.323-.102-2.512-.14a1.393 1.393 0 0 1-.745-.454c-.28-.344-.43-.763-.502-1.407a21.47 21.47 0 0 1 .01-4.689c.077-.633.267-1.09.587-1.41a1.21 1.21 0 0 1 .59-.343c.507-.13 4.464-.233 6.872-.18 1.391.031 2.894.096 3.293.141.516.06.88.328 1.13.837.19.384.25.683.328 1.605.06.73.075 1.185.064 2.028-.013 1.01-.077 1.898-.173 2.396-.1.528-.34.977-.648 1.22-.238.189-.492.273-.892.295-.119.007-.269.016-.334.022-.23.017-1.463.067-2.14.086-1.005.029-2.763.038-3.72.022zm-1.24-9.15c-.017-.028-.014-1.65.003-1.879.021-.294-.028-.526-.238-1.118A28.132 28.132 0 0 1 9.84 7.7c-.596-1.9-.564-1.788-.507-1.788.392-.004.876-.001.882.004.003.004.13.468.282 1.031l.283 1.042c.003.01.092-.319.198-.73.222-.86.347-1.336.352-1.34.01-.01.12-.011.481-.01l.4.003-.01.064c-.006.052-.28.972-.565 1.906l-.176.591c-.066.222-.146.486-.178.586l-.057.183v1.141c0 1.07-.003 1.142-.034 1.15-.072.02-.83.01-.842-.01zm5.166.068c-.198-.027-.313-.103-.392-.26-.1-.197-.1-.196-.1-2.16V7.341h.797l.008 1.688c.01 1.835.007 1.792.116 1.82.1.024.212-.03.35-.171l.133-.136.005-1.6.005-1.601.398-.006.398-.005v4.194l-.054.01a6.182 6.182 0 0 1-.717 0c-.03-.008-.034-.036-.034-.2v-.19l-.113.11c-.26.254-.54.372-.8.338zm-2.005-.801c.137-.104.137-.113.144-1.292.007-.916.003-1.072-.024-1.197-.038-.169-.103-.248-.231-.284-.166-.044-.317.051-.37.233-.04.14-.04 2.218 0 2.357.031.106.13.22.203.236a.37.37 0 0 0 .278-.053zm-.312.8c-.356-.043-.683-.254-.84-.54-.161-.293-.176-.446-.167-1.733.008-.997.01-1.06.05-1.202.094-.34.276-.572.557-.713a1.146 1.146 0 0 1 1.17.07c.233.151.374.37.45.695.033.144.036.254.036 1.26 0 1.225-.005 1.296-.13 1.56-.12.257-.393.482-.677.561a1.5 1.5 0 0 1-.449.042z"/>
    </g>
</svg>

<?xml version="1.0" encoding="UTF-8" standalone="no"?>
<!DOCTYPE svg PUBLIC "-//W3C//DTD SVG 1.1//EN" "http://www.w3.org/Graphics/SVG/1.1/DTD/svg11.dtd">
<svg width="100%" height="100%" viewBox="0 0 60 60" version="1.1" xmlns="http://www.w3.org/2000/svg" xmlns:xlink="http://www.w3.org/1999/xlink" xml:space="preserve" xmlns:serif="http://www.serif.com/" style="fill-rule:evenodd;clip-rule:evenodd;">
    <g transform="matrix(0.15,0,0,0.15,6.16174e-15,6.16174e-15)">
        <circle cx="200" cy="200" r="200" style="fill:rgb(28,120,120);"/>
        <g transform="matrix(16.8222,0,0,16.8222,200,200)">
            <g transform="matrix(1,0,0,1,-8,-5.5)">
                <clipPath id="_clip1">
                    <rect x="0" y="0" width="16" height="11"/>
                </clipPath>
                <g clip-path="url(#_clip1)">
                    <g>
                        <rect x="1" y="1" width="14" height="9.333" style="fill:none;stroke:white;stroke-width:1px;"/>
                        <path d="M1,1L8,5.667L15,1" style="fill:none;stroke:white;stroke-width:1px;"/>
                    </g>
                </g>
            </g>
        </g>
    </g>
    <g transform="matrix(2.30769,0,0,2.30769,30,30)">
        <g transform="matrix(1,0,0,1,-13,-13)">
            <g>
                <circle cx="13" cy="13" r="13" style="fill:rgb(28,120,120);"/>
                <path d="M9.41,16.556L9.42,14.162L9.868,14.157L10.315,14.151L10.31,13.783L10.304,13.413L9.013,13.408L7.723,13.403L7.723,14.151L8.159,14.157L8.596,14.162L8.601,16.536C8.603,17.841 8.61,18.921 8.615,18.935C8.622,18.955 8.713,18.959 9.012,18.955L9.401,18.95L9.411,16.556L9.41,16.556ZM16.858,16.387C16.84,16.339 16.865,15.787 16.89,15.706C16.946,15.517 17.066,15.426 17.256,15.426C17.413,15.426 17.513,15.486 17.581,15.623C17.623,15.71 17.627,15.747 17.634,16.068L17.641,16.418L17.255,16.418C16.923,16.418 16.868,16.413 16.858,16.388L16.858,16.387ZM17.578,18.967C17.956,18.86 18.218,18.601 18.316,18.236C18.332,18.173 18.352,17.996 18.358,17.841L18.369,17.561L17.641,17.561L17.633,17.811C17.623,18.098 17.593,18.196 17.489,18.287C17.379,18.384 17.176,18.391 17.044,18.302C16.887,18.196 16.848,18.016 16.856,17.432L16.862,17.019L17.615,17.014L18.368,17.008L18.358,16.393C18.346,15.706 18.332,15.602 18.217,15.358C17.997,14.896 17.39,14.663 16.886,14.848C16.506,14.986 16.281,15.238 16.19,15.626C16.159,15.763 16.155,15.886 16.155,16.891C16.155,18.123 16.159,18.173 16.285,18.426C16.508,18.874 17.069,19.109 17.578,18.966L17.578,18.967ZM14.596,18.265C14.645,18.23 14.68,18.18 14.696,18.122C14.727,18.032 14.73,17.918 14.726,16.861C14.721,15.76 14.719,15.695 14.684,15.623C14.592,15.438 14.363,15.42 14.152,15.582L14.083,15.634L14.083,18.147L14.152,18.199C14.308,18.319 14.478,18.343 14.596,18.265ZM15.052,18.974C15.166,18.941 15.305,18.804 15.367,18.664C15.487,18.398 15.487,18.391 15.487,16.891C15.487,15.659 15.483,15.507 15.453,15.373C15.354,14.947 15.139,14.761 14.778,14.788C14.575,14.804 14.416,14.885 14.224,15.07C14.173,15.123 14.118,15.172 14.059,15.216C14.051,15.216 14.044,14.808 14.044,14.31L14.044,13.404L13.337,13.404L13.337,18.959L14.044,18.959L14.044,18.772C14.044,18.648 14.051,18.585 14.066,18.585C14.078,18.585 14.157,18.651 14.243,18.731C14.518,18.991 14.756,19.062 15.052,18.974ZM11.29,18.956C11.431,18.903 11.597,18.788 11.737,18.646C11.777,18.598 11.825,18.558 11.879,18.526C11.898,18.526 11.904,18.579 11.904,18.743L11.904,18.959L12.611,18.959L12.611,14.842L11.904,14.842L11.904,18.018L11.752,18.17C11.632,18.29 11.581,18.327 11.506,18.348C11.38,18.383 11.299,18.358 11.247,18.268C11.208,18.202 11.207,18.171 11.202,16.521L11.196,14.841L10.49,14.841L10.49,16.625C10.49,18.568 10.492,18.61 10.6,18.797C10.72,19.002 10.997,19.066 11.29,18.956ZM11.59,20.674C11.131,20.666 10.588,20.653 10.382,20.645C9.005,20.595 8.059,20.543 7.87,20.505C7.58,20.437 7.318,20.278 7.125,20.051C6.845,19.707 6.695,19.288 6.623,18.644C6.455,17.085 6.458,15.513 6.633,13.955C6.71,13.322 6.9,12.865 7.22,12.545C7.38,12.376 7.585,12.257 7.81,12.202C8.317,12.072 12.274,11.969 14.682,12.022C16.073,12.053 17.576,12.118 17.975,12.163C18.491,12.223 18.855,12.491 19.105,13C19.295,13.384 19.355,13.683 19.433,14.605C19.493,15.335 19.508,15.79 19.497,16.633C19.484,17.643 19.42,18.531 19.324,19.029C19.224,19.557 18.984,20.006 18.676,20.249C18.438,20.438 18.184,20.522 17.784,20.544C17.665,20.551 17.515,20.56 17.45,20.566C17.22,20.583 15.987,20.633 15.31,20.652C14.305,20.681 12.547,20.69 11.59,20.674ZM10.35,11.524C10.333,11.496 10.336,9.874 10.353,9.645C10.374,9.351 10.325,9.119 10.115,8.527C10.019,8.253 9.927,7.977 9.84,7.7C9.244,5.8 9.276,5.912 9.333,5.912C9.725,5.908 10.209,5.911 10.215,5.916C10.218,5.92 10.345,6.384 10.497,6.947L10.78,7.989C10.783,7.999 10.872,7.67 10.978,7.259C11.2,6.399 11.325,5.923 11.33,5.919C11.34,5.909 11.45,5.908 11.811,5.909L12.211,5.912L12.201,5.976C12.195,6.028 11.921,6.948 11.636,7.882L11.46,8.473C11.394,8.695 11.314,8.959 11.282,9.059L11.225,9.242L11.225,10.383C11.225,11.453 11.222,11.525 11.191,11.533C11.119,11.553 10.361,11.543 10.349,11.523L10.35,11.524ZM15.516,11.592C15.318,11.565 15.203,11.489 15.124,11.332C15.024,11.135 15.024,11.136 15.024,9.172L15.024,7.341L15.821,7.341L15.829,9.029C15.839,10.864 15.836,10.821 15.945,10.849C16.045,10.873 16.157,10.819 16.295,10.678L16.428,10.542L16.433,8.942L16.438,7.341L16.836,7.335L17.234,7.33L17.234,11.524L17.18,11.534C16.941,11.548 16.702,11.548 16.463,11.534C16.433,11.526 16.429,11.498 16.429,11.334L16.429,11.144L16.316,11.254C16.056,11.508 15.776,11.626 15.516,11.592ZM13.511,10.791C13.648,10.687 13.648,10.678 13.655,9.499C13.662,8.583 13.658,8.427 13.631,8.302C13.593,8.133 13.528,8.054 13.4,8.018C13.234,7.974 13.083,8.069 13.03,8.251C12.99,8.391 12.99,10.469 13.03,10.608C13.061,10.714 13.16,10.828 13.233,10.844C13.329,10.864 13.429,10.845 13.511,10.791ZM13.199,11.591C12.843,11.548 12.516,11.337 12.359,11.051C12.198,10.758 12.183,10.605 12.192,9.318C12.2,8.321 12.202,8.258 12.242,8.116C12.336,7.776 12.518,7.544 12.799,7.403C13.172,7.21 13.622,7.237 13.969,7.473C14.202,7.624 14.343,7.843 14.419,8.168C14.452,8.312 14.455,8.422 14.455,9.428C14.455,10.653 14.45,10.724 14.325,10.988C14.205,11.245 13.932,11.47 13.648,11.549C13.501,11.586 13.35,11.6 13.199,11.591Z" style="fill:white;"/>
            </g>
        </g>
    </g>
</svg>
